X: 060333
T: Flynn's
S: M.Mulvihill
Z: B.Black
R: hornpipe
M: 4/4
L: 1/8
K: Ador
D | EAAB c2 d2 | (3efg ed Bc d2 | eAAB BAGB |\
AGEF GE D2 |
EAAB c2 d2 | (3efg ed Bc d2 | eAAB BAGE | A4-A3 :|
d | ea (3aba e2 d2 | ea (3aba e2 d2 | eAAB BAGB |\
AGEF GE D2 |
EAAB c2 d2 | (3efg ed Bc d2 | eAAB BAGE | A4-A3 :|
